svg/fluentui-system-icons/ic_fluent_fps_240_24_filled.svg

<svg width="24" height="24" viewBox="0 0 24 24" fill="none" xmlns="http://www.w3.org/2000/svg">
<path d="M2.14874 6.17848C2.65358 6.38062 3.22555 6.1413 3.43814 5.6435C3.44167 5.63642 3.45168 5.61721 3.46906 5.58974C3.50429 5.53406 3.5659 5.45057 3.66 5.36494C3.83196 5.20846 4.15817 5 4.76745 5C5.19175 5 5.51334 5.12946 5.71137 5.29727C5.89355 5.45164 6.01616 5.67231 6.01616 6C6.01616 6.54895 5.84404 6.86459 5.59405 7.12378C5.29234 7.4366 4.87224 7.67744 4.27159 8.02123C3.72694 8.33296 3.02207 8.73677 2.47604 9.35069C1.88989 10.0097 1.52077 10.8639 1.52077 12C1.52077 12.5523 1.96803 13 2.51975 13H7.01514C7.56686 13 8.01412 12.5523 8.01412 12C8.01412 11.4477 7.56686 11 7.01514 11H3.74102C3.80688 10.8795 3.88414 10.7752 3.96827 10.6806C4.26513 10.3468 4.6841 10.089 5.2633 9.75746L5.36575 9.69897C5.8758 9.40819 6.52484 9.03817 7.03142 8.51294C7.62432 7.8982 8.01412 7.09079 8.01412 6C8.01412 5.08505 7.63357 4.30572 7.00224 3.77075C6.38677 3.24922 5.5845 3 4.76745 3C3.62852 3 2.83088 3.41654 2.31604 3.88506C2.06674 4.11193 1.89421 4.34094 1.78116 4.51964C1.72439 4.60935 1.68172 4.6878 1.65112 4.74908C1.63578 4.77978 1.62338 4.80636 1.61366 4.82813C1.6088 4.83902 1.60461 4.84873 1.60105 4.85716L1.59617 4.86886L1.59409 4.87398L1.59313 4.87636L1.59267 4.8775C1.59267 4.8775 1.38446 5.39847 1.59222 4.87861C1.38732 5.39139 1.63648 5.97336 2.14874 6.17848ZM16.0061 6C16.0061 4.34315 17.3479 3 19.0031 3C20.6582 3 22 4.34315 22 6V10C22 11.6569 20.6582 13 19.0031 13C17.3479 13 16.0061 11.6569 16.0061 10V6ZM19.0031 5C18.4514 5 18.0041 5.44772 18.0041 6V10C18.0041 10.5523 18.4514 11 19.0031 11C19.5548 11 20.002 10.5523 20.002 10V6C20.002 5.44772 19.5548 5 19.0031 5ZM4.76767 15C4.35388 15 4.01844 15.3358 4.01844 15.75V21.2312C4.01844 21.6454 4.35388 21.9812 4.76767 21.9812C5.18146 21.9812 5.5169 21.6454 5.5169 21.2312V19.5028H7.26511C7.6789 19.5028 8.01434 19.167 8.01434 18.7528C8.01434 18.3386 7.6789 18.0028 7.26511 18.0028H5.5169V16.5H7.76459C8.17838 16.5 8.51383 16.1642 8.51383 15.75C8.51383 15.3358 8.17838 15 7.76459 15H4.76767ZM9.5128 15.75C9.5128 15.3358 9.84824 15 10.262 15H11.7605C13.0019 15 14.0082 16.0074 14.0082 17.25C14.0082 18.4926 13.0019 19.5 11.7605 19.5H11.0113V21.25C11.0113 21.6642 10.6758 22 10.262 22C9.84824 22 9.5128 21.6642 9.5128 21.25V15.75ZM11.0113 18H11.7605C12.1743 18 12.5097 17.6642 12.5097 17.25C12.5097 16.8358 12.1743 16.5 11.7605 16.5H11.0113V18ZM17.3797 15C16.2073 15 15.2569 15.9514 15.2569 17.125C15.2569 18.2986 16.2073 19.25 17.3797 19.25H17.8792C18.2241 19.25 18.5036 19.5298 18.5036 19.875C18.5036 20.2202 18.2241 20.5 17.8792 20.5H17.2549C16.979 20.5 16.7554 20.2761 16.7554 20C16.7554 19.5858 16.4199 19.25 16.0061 19.25C15.5924 19.25 15.2569 19.5858 15.2569 20C15.2569 21.1046 16.1514 22 17.2549 22H17.8792C19.0516 22 20.002 21.0486 20.002 19.875C20.002 18.7014 19.0516 17.75 17.8792 17.75H17.3797C17.0349 17.75 16.7554 17.4702 16.7554 17.125C16.7554 16.7798 17.0349 16.5 17.3797 16.5H18.0041C18.28 16.5 18.5036 16.7239 18.5036 17C18.5036 17.4142 18.839 17.75 19.2528 17.75C19.6666 17.75 20.002 17.4142 20.002 17C20.002 15.8954 19.1075 15 18.0041 15H17.3797ZM15.0071 3.99419C15.0039 3.44192 14.5541 2.99681 14.0024 3.00002C13.4507 3.00322 13.006 3.45353 13.0092 4.00581L13.0266 7H11.0113V4.00075C11.0113 3.44847 10.564 3.00075 10.0123 3.00075C9.46057 3.00075 9.01331 3.44847 9.01331 4.00075V8C9.01331 8.55229 9.46057 9 10.0123 9H13.0326V12C13.0326 12.5523 13.4799 13 14.0316 13C14.5833 13 15.0306 12.5523 15.0306 12V7.40521C15.0306 7.37417 15.0292 7.34345 15.0264 7.31313L15.0071 3.99419Z" fill="#212121"/>
</svg>

<svg xmlns="http://www.w3.org/2000/svg" width="24" height="24"><path d="M2.149 6.178a.999.999 0 0 0 1.29-.534 1.116 1.116 0 0 1 .222-.279C3.831 5.208 4.157 5 4.766 5c.425 0 .746.13.944.297.183.155.305.375.305.703 0 .549-.172.865-.422 1.124-.302.313-.722.553-1.322.897-.545.312-1.25.716-1.796 1.33-.586.659-.955 1.513-.955 2.649a1 1 0 0 0 .999 1h4.495a1 1 0 0 0 0-2H3.741c.066-.12.143-.225.227-.32.297-.333.716-.591 1.295-.923l.103-.058c.51-.29 1.159-.66 1.665-1.186.593-.615.983-1.422.983-2.513 0-.915-.38-1.694-1.012-2.23C6.387 3.25 5.585 3 4.767 3c-1.138 0-1.936.417-2.451.885a3.114 3.114 0 0 0-.665.864 2.017 2.017 0 0 0-.05.108l-.005.012-.002.005v.002l-.001.002s-.209.52 0 0a1 1 0 0 0 .556 1.3ZM16.006 6c0-1.657 1.342-3 2.997-3A2.998 2.998 0 0 1 22 6v4c0 1.657-1.342 3-2.997 3a2.998 2.998 0 0 1-2.997-3V6Zm2.997-1a1 1 0 0 0-.999 1v4a1 1 0 1 0 1.998 0V6a1 1 0 0 0-.999-1ZM4.768 15a.75.75 0 0 0-.75.75v5.481a.75.75 0 1 0 1.499 0v-1.728h1.748a.75.75 0 0 0 0-1.5H5.517V16.5h2.248a.75.75 0 0 0 0-1.5H4.768Zm4.745.75a.75.75 0 0 1 .749-.75h1.498a2.249 2.249 0 0 1 2.248 2.25 2.249 2.249 0 0 1-2.247 2.25h-.75v1.75a.75.75 0 1 1-1.498 0v-5.5ZM11.01 18h.75a.75.75 0 0 0 0-1.5h-.75V18Zm6.369-3a2.124 2.124 0 0 0-2.123 2.125c0 1.174.95 2.125 2.123 2.125h.5a.625.625 0 0 1 0 1.25h-.625a.5.5 0 0 1-.5-.5.75.75 0 1 0-1.498 0c0 1.105.894 2 1.998 2h.624a2.124 2.124 0 0 0 2.123-2.125c0-1.174-.95-2.125-2.123-2.125h-.5a.625.625 0 0 1 0-1.25h.625a.5.5 0 0 1 .5.5.75.75 0 1 0 1.498 0c0-1.105-.894-2-1.998-2h-.624ZM15.007 3.994a1 1 0 1 0-1.998.012L13.027 7H11.01V4a1 1 0 1 0-1.998 0v4a1 1 0 0 0 1 1h3.02v3a1 1 0 1 0 1.998 0V7.405a.945.945 0 0 0-.005-.092l-.019-3.319Z"/></svg>
